build/system/CalendarOkOutline.svg

<svg xmlns="http://www.w3.org/2000/svg" fill="none" viewBox="0 0 24 24" focusable="false"><path d="M0 0H24V24H0z"/><path fill="#74767B" fill-rule="evenodd" d="M8.78998 2.59995C8.78998 2.24097 8.49896 1.94995 8.13998 1.94995C7.78099 1.94995 7.48998 2.24097 7.48998 2.59995L7.48998 3.98996L7 3.98996C5.34 3.98996 4 5.32996 4 6.98996L4 17.12C4 18.78 5.34 20.12 7 20.12L17 20.12C18.66 20.12 20 18.78 20 17.12L20 6.98996C20 5.32996 18.65 3.98996 17 3.98996L16.5 3.98996L16.5 2.59995C16.5 2.24097 16.209 1.94995 15.85 1.94995C15.491 1.94995 15.2 2.24097 15.2 2.59995L15.2 3.98996L12.65 3.98996L12.65 2.59995C12.65 2.24097 12.359 1.94995 12 1.94995C11.641 1.94995 11.35 2.24097 11.35 2.59995L11.35 3.98996L8.78998 3.98996L8.78998 2.59995ZM7.48998 5.28996L7.48998 6.85995C7.48998 7.21894 7.78099 7.50995 8.13998 7.50995C8.49896 7.50995 8.78998 7.21894 8.78998 6.85995L8.78998 5.28996L11.35 5.28996L11.35 6.85995C11.35 7.21894 11.641 7.50995 12 7.50995C12.359 7.50995 12.65 7.21894 12.65 6.85995L12.65 5.28996L15.2 5.28996L15.2 6.85995C15.2 7.21894 15.491 7.50995 15.85 7.50995C16.209 7.50995 16.5 7.21894 16.5 6.85995L16.5 5.28996L17 5.28996C17.94 5.28996 18.7 6.04996 18.7 6.98996L18.7 9.34997L5.3 9.34997L5.3 6.98996C5.3 6.04996 6.06 5.28996 7 5.28996L7.48998 5.28996ZM5.3 10.65L18.7 10.65L18.7 17.12C18.7 18.06 17.94 18.82 17 18.82L7 18.82C6.06 18.82 5.3 18.06 5.3 17.12L5.3 10.65ZM15.7131 13.1197C15.9561 12.8554 15.9388 12.4442 15.6746 12.2013C15.4103 11.9583 14.9991 11.9756 14.7561 12.2399L11.6832 15.5824L10.0381 13.9374C9.78431 13.6835 9.37275 13.6835 9.11891 13.9374C8.86507 14.1912 8.86507 14.6028 9.11891 14.8566L11.022 16.7597C11.4041 17.1418 12.0275 17.1287 12.3931 16.7309L15.7131 13.1197Z"/></svg>

<svg xmlns="http://www.w3.org/2000/svg" fill="none" viewBox="0 0 24 24" focusable="false"><path fill="#74767B" fill-rule="evenodd" d="M8.79 2.59c0-.35-.3-.65-.65-.65-.36 0-.66.3-.66.65v1.39H7c-1.67 0-3 1.34-3 3v10.13c0 1.67 1.33 3 3 3h10c1.66 0 3-1.33 3-3V6.98c0-1.66-1.36-3-3-3h-.5V2.59c0-.35-.3-.65-.65-.65-.36 0-.65.3-.65.65v1.39h-2.56V2.59c0-.35-.29-.65-.64-.65-.36 0-.65.3-.65.65v1.39H8.79zM7.48 5.28v1.57a.655.655 0 0 0 1.31 0V5.28h2.56v1.57c0 .36.29.65.65.65.35 0 .64-.29.64-.65V5.28h2.56v1.57c0 .36.29.65.65.65.35 0 .65-.29.65-.65V5.28h.5c.93 0 1.7.76 1.7 1.7v2.36H5.29V6.98c0-.94.77-1.7 1.71-1.7zm-2.19 5.37H18.7v6.46c0 .94-.77 1.7-1.7 1.7H7c-.94 0-1.71-.76-1.71-1.7zm10.38 1.55c.26.24.28.65.04.91l-3.32 3.62c-.37.39-.99.41-1.37.02l-1.91-1.9a.66.66 0 0 1 0-.92c.26-.25.67-.25.92 0l1.65 1.65 3.07-3.35a.65.65 0 0 1 .92-.03"/></svg>
